!!!COM:	la Rue, Pierre de
!!!CDT:	~1452///-1518/11/20
!!!OPR:	Missa O gloriosa domina
!!!ONM:	4
!!!OTL:	Sanctus
!!!AGN:	Mass; Sanctus
!!!SCT:	Rue1021d
!!!SCA:	Rue1021d
!!!voices-OPR:	4
!!!voices:	4
**kern	**kern	**kern	**kern
*staff4	*staff3	*staff2	*staff1
*Ivox	*Ivox	*Ivox	*Ivox
*I"Bassus	*I"Tenor	*I"Contra	*I"Discantus
*I'B	*I'T	*I'C	*I'D
*>[A,B,C,D,E,C]	*>[A,B,C,D,E,C]	*>[A,B,C,D,E,C]	*>[A,B,C,D,E,C]
*>A	*>A	*>A	*>A
*clefF4	*clefGv2	*clefG2	*clefG2
*k[]	*k[]	*k[]	*k[]
*M2/1	*M2/1	*M2/1	*M2/1
*met(C)	*met(C)	*met(C)	*met(C)
=1-	=1-	=1-	=1-
!!section: Sanctus
!!!OMD: Sanctus
0r	0d	0r	0dd
=2	=2	=2	=2
0r	1d	0r	0a
.	[1A	.	.
=3	=3	=3	=3
0r	2A/]	0r	2cc\
.	2B\	.	2dd\
.	1c	.	1ee
=4	=4	=4	=4
0r	1d	0r	2.ff\
.	.	.	4ee\
.	1r	.	2dd\
.	.	.	2cc\
=5	=5	=5	=5
0r	1e	0r	1b
.	2.f\	.	1a
.	4d\	.	.
=6	=6	=6	=6
0r	4e\	0r	1r
.	4f\	.	.
.	2.g\	.	.
.	.	.	1b
.	4e\	.	.
.	4f\	.	.
.	4g\	.	.
=7	=7	=7	=7
0r	1a	0r	2.cc\
.	.	.	4a/
.	1r	.	4b\
.	.	.	4cc\
.	.	.	[2dd\
=8	=8	=8	=8
0r	1d	0r	4dd\]
.	.	.	4b\
.	.	.	4cc\
.	.	.	4dd\
.	2.c\	.	1ee
.	4A/	.	.
=9	=9	=9	=9
0r	2B\	0r	2dd\
.	2c\	.	1cc
.	2d\	.	.
.	2f\	.	4b\
.	.	.	4a/
=10	=10	=10	=10
0r	0e	0r	1g
.	.	.	2r
.	.	.	2g/
=11	=11	=11	=11
0r	2r	0r	2a/
.	2c\	.	2cc\
.	2d\	.	2b\
.	[2f\	.	[2a/
=12	=12	=12	=12
0d	4f\]	1r	4a/]
.	4e\	.	4g/
.	4d\	.	4f/
.	4c\	.	4e/
.	1d	[1a	1f
=13	=13	=13	=13
1A	0c 0e	1a]	1e
2A\	.	1e	1r
[2c\	.	.	.
=14	=14	=14	=14
2c\]	0r	2e/	0r
4B\	.	1g	.
4A\	.	.	.
2G\	.	.	.
2A\	.	4f/	.
.	.	4e/	.
=15	=15	=15	=15
2B\	0r	2d/	0r
2.A\	.	2e/	.
.	.	2f/	.
4E\	.	.	.
2G\	.	[2e/	.
=16	=16	=16	=16
1F	0r	2e/]	0r
.	.	2d/	.
2r	.	[1e	.
[2E\	.	.	.
=17	=17	=17	=17
4E\]	0r	2e/]	0r
4F\	.	.	.
4G\	.	4d/	.
4A\	.	4c/	.
2B\	.	2d/	.
2c\	.	2e/	.
=18	=18	=18	=18
2B\	0r	4d/	0r
.	.	4c/	.
2.A\	.	4B/	.
.	.	4A/	.
.	.	1B	.
4G#i\	.	.	.
2G#i\	.	.	.
=19	=19	=19	=19
2.A\	0r	2r	0r
.	.	2.e/	.
4B\	.	.	.
4c\	.	.	.
4d\	.	4f/	.
[2e\	.	4g/	.
.	.	4a/	.
=20	=20	=20	=20
2e\]	0r	2b\	0r
2c\	.	2cc\	.
2d\	.	2b\	.
2A\	.	[2a/	.
=21	=21	=21	=21
1B	1d	4a/]	1r
.	.	4g#i/	.
.	.	2g#i/	.
[1A	2e\	[1a	2r
.	[2f\	.	[2a/
=22	=22	=22	=22
0A_	2f\]	0a_	4a/]
.	.	.	4b\
.	4e\	.	4cc\
.	4d\	.	4dd\
.	2c\	.	2ee\
.	2d\	.	2ff\
=23	=23	=23	=23
1A]	2e\	1a]	2ee\
.	2f\	.	1dd
1A	1e	2r	.
.	.	2a/	2cc\
=24	=24	=24	=24
1B	1d	2g/	0dd
.	.	2f/	.
[1G	2d\	2.g/	.
.	[2g\	.	.
.	.	4a/	.
=25	=25	=25	=25
1G]	2g\]	2b\	1r
.	4f\	1cc	.
.	4e\	.	.
1G	1d	.	1dd
.	.	2b\	.
=26	=26	=26	=26
0c	1c	0cc	1.ee
.	1g	.	.
.	.	.	2ee\
=27	=27	=27	=27
1F	1a	1.cc	1ff
1c	1g	.	[1ee
.	.	2cc\	.
=28	=28	=28	=28
0d	0f	0a	2ee\]
.	.	.	1dd
.	.	.	4cc\
.	.	.	4b\
=29	=29	=29	=29
[0A	0e	2r	0cc
.	.	1a	.
.	.	4g/	.
.	.	4f/	.
=30	=30	=30	=30
0A]	1r	2e/	1r
.	.	1f	.
.	1c	.	1a
.	.	2e/	.
=31	=31	=31	=31
1r	1d	1f	1b-i
1F	1c	1f	[1a
=32	=32	=32	=32
0G	0B-i	[0d	2a/]
.	.	.	1g
.	.	.	4f/
.	.	.	4e/
=33	=33	=33	=33
0D	[0A	0d]	0f
=34	=34	=34	=34
2r	0A]	1r	0e
2A\	.	.	.
1A	.	1c	.
=35	=35	=35	=35
2G\	0r	2B/	2r
1A	.	2.c/	2ee\
.	.	.	1ee
.	.	4d/	.
2c\	.	4e/	.
.	.	4f/	.
=36	=36	=36	=36
2B\	0r	2g/	2dd\
2A\	.	2c/	1ee
2.c\	.	2.g/	.
.	.	.	2cc\
4B\	.	4a/	.
=37	=37	=37	=37
2.G\	0r	1b	2.dd\
4A\	.	.	4cc\
2B\	.	2g/	2dd\
2G\	.	[2b\	2b\
=38	=38	=38	=38
2A\	0r	2b\]	2cc\
2F\	.	2a/	2a/
2E\	.	4g/	1b
.	.	4f/	.
2e\	.	2g/	.
=39	=39	=39	=39
2c\	2r	0a	2a/
1A	2a\	.	1cc
.	1a	.	.
2f\	.	.	2dd\
=40	=40	=40	=40
2e\	2g\	1r	2ee\
2d\	1a	.	1ff
2.f\	.	1a	.
.	2f\	.	2dd\
4e\	.	.	.
=41	=41	=41	=41
2.c\	2.g\	2.cc\	2.ee\
4d\	4f\	4b\	4dd\
2e\	2g\	2g/	2b\
2c\	2e\	2cc\	[2ee\
=42	=42	=42	=42
2d\	2f\	2b\	2ee\]
2B\	2d\	2g/	2.dd\
1A	1e	1a	.
.	.	.	4cc#i\
.	.	.	2cc#i\
=43	=43	=43	=43
0Dl	0dl	0al	0ddl
!!LO:LB:i:g=z
=44||	=44||	=44||	=44||
*>B	*>B	*>B	*>B
*clefF4	*clefGv2	*clefG2	*clefG2
*k[]	*k[]	*k[]	*k[]
*M2/1	*M2/1	*M2/1	*M2/1
*met(C2)	*met(C2)	*met(C2)	*met(C2)
!!section: Pleni sunt celi
!!!OMD: Pleni sunt celi
0r	0r	1d	0r
.	.	2e/	.
.	.	[2f/	.
=45.	=45.	=45.	=45.
1d	0r	2f/]	0r
.	.	4e/	.
.	.	4d/	.
2c\	.	2e/	.
[2d\	.	2d/	.
=46	=46	=46	=46
2d\]	0r	2f/	0r
4c\	.	2g/	.
4B\	.	.	.
2A\	.	1a	.
2c\	.	.	.
=47.	=47.	=47.	=47.
2B\	0r	1r	0r
2A\	.	.	.
2c\	.	1a	.
4B\	.	.	.
4A\	.	.	.
=48	=48	=48	=48
2B\	0r	2g/	0r
2A\	.	1a	.
2c\	.	.	.
2d\	.	4g/	.
.	.	4f/	.
=49.	=49.	=49.	=49.
1e	0r	2e/	0r
.	.	2g/	.
2d\	.	2f/	.
[2e\	.	2e/	.
=50	=50	=50	=50
2e\]	0r	2g/	0r
4d\	.	4f/	.
4c\	.	4e/	.
2d\	.	2f/	.
2e\	.	[2e/	.
=51.	=51.	=51.	=51.
2c\	0r	2e/]	0r
4B\	.	1a	.
4A\	.	.	.
1B	.	.	.
.	.	2g#i/	.
=52	=52	=52	=52
0A	0r	0a	1r
.	.	.	1a
=53.	=53.	=53.	=53.
0r	0r	1r	2b\
.	.	.	1cc
.	.	1a	.
.	.	.	4b\
.	.	.	4a/
=54	=54	=54	=54
0r	0r	2g/	2b\
.	.	1a	2a/
.	.	.	2cc\
.	.	4g/	2dd\
.	.	4f/	.
=55.	=55.	=55.	=55.
0r	0r	2e/	1ee
.	.	2g/	.
.	.	2f/	2dd\
.	.	2e/	[2ee\
=56	=56	=56	=56
0r	0r	2.g/	2ee\]
.	.	.	4dd\
.	.	4f/	4cc\
.	.	1d	2b\
.	.	.	2dd\
=57.	=57.	=57.	=57.
0r	0r	1e	2cc\
.	.	.	2b\
.	.	2d/	2ff\
.	.	[2e/	[2gg\
=58	=58	=58	=58
0r	0r	2e/]	2gg\]
.	.	4d/	4ff\
.	.	4c/	4ee\
.	.	2B/	2dd\
.	.	2A/	[2ee\
=59.	=59.	=59.	=59.
1A	0r	2.c/	2ee\]
.	.	.	4dd\
.	.	4A/	4cc\
2G\	.	4B/	2dd\
.	.	4A/	.
[2A\	.	[2e/	2cc\
=60	=60	=60	=60
2A\]	0r	2e/]	2ee\
4G\	.	2.d/	2ff\
4F\	.	.	.
1E	.	.	1gg
.	.	4c#i/	.
.	.	2c#i/	.
=61.	=61.	=61.	=61.
0D	0r	0d	1ff
.	.	.	2r
.	.	.	[2dd\
=62	=62	=62	=62
1r	0r	0r	2dd\]
.	.	.	2ff\
2r	.	.	2ee\
[2d\	.	.	2dd\
=63.	=63.	=63.	=63.
4d\]	0r	0r	2.ff\
4e\	.	.	.
2f\	.	.	.
.	.	.	4ee\
2e\	.	.	2cc\
2d\	.	.	[2dd\
=64	=64	=64	=64
2.f\	0r	0r	2dd\]
.	.	.	4cc\
4e\	.	.	4b\
2c\	.	.	1a
[2d\	.	.	.
=65.	=65.	=65.	=65.
2d\]	0r	0r	1dd
4c\	.	.	.
4B\	.	.	.
1A	.	.	2cc\
.	.	.	2a/
=66	=66	=66	=66
1d	0r	0r	4b\
.	.	.	4a/
.	.	.	4g/
.	.	.	4f/
2.c\	.	.	2e/
.	.	.	2g/
4B\	.	.	.
=67.	=67.	=67.	=67.
4A\	0r	1r	1f
4G\	.	.	.
1A	.	.	.
.	.	[1e	1e
4G\	.	.	.
4F\	.	.	.
=68	=68	=68	=68
2G\	0r	2e/]	0r
2A\	.	2e/	.
2E\	.	1e	.
2G\	.	.	.
=69.	=69.	=69.	=69.
1F	0r	1d	1r
1E	.	[1e	[1ee
=70	=70	=70	=70
0r	0r	1e]	2ee\]
.	.	.	2dd\
.	.	[1e	2cc\
.	.	.	2b\
=71.	=71.	=71.	=71.
0r	0r	1e]	2a/
.	.	.	2g/
.	.	1d	1f
=72	=72	=72	=72
1r	0r	1e	2e/
.	.	.	2.g/
[1e	.	2r	.
.	.	.	4a/
.	.	[2g/	2b\
=73.	=73.	=73.	=73.
2e\]	0r	2g/]	2e/
2d\	.	2f/	1a
2c\	.	2e/	.
2B\	.	2d/	2g/
=74	=74	=74	=74
2A\	0r	2c/	2a/
2G\	.	2B/	2b\
1F	.	2A/	2cc\
.	.	[2c/	4b\
.	.	.	4a/
=75.	=75.	=75.	=75.
0E	0r	2c/]	2g/
.	.	4B/	2.a/
.	.	4A/	.
.	.	1B	.
.	.	.	4g#i/
.	.	.	2g#i/
=76	=76	=76	=76
0r	0r	1A	0a
.	.	2r	.
.	.	[2a/	.
=77.	=77.	=77.	=77.
0r	0r	2a/]	1r
.	.	2g/	.
.	.	2f/	[1a
.	.	2e/	.
=78	=78	=78	=78
2r	0r	2d/	1a]
1c	.	4c/	.
.	.	4d/	.
.	.	4e/	1a
.	.	4c/	.
2B\	.	[2f/	.
=79.	=79.	=79.	=79.
2A\	0r	2f/]	0a
2G\	.	1e	.
1F	.	.	.
.	.	2d/	.
=80	=80	=80	=80
2E\	0r	1e	2g/
1e	.	.	1cc
.	.	1r	.
2d\	.	.	2b\
=81.	=81.	=81.	=81.
2c\	0r	1r	2a/
2B\	.	.	2g/
2A\	.	[1a	2f/
2G\	.	.	[2e/
=82	=82	=82	=82
1F	0r	2a/]	2e/]
.	.	2a/	2d/
1E	.	1g	1e
=83.	=83.	=83.	=83.
0r	0r	2e/	2r
.	.	1cc	1ee
.	.	2b\	2dd\
=84	=84	=84	=84
1r	0r	2a/	2cc\
.	.	2g/	2b\
2r	.	2f/	2a/
2G\	.	[2e/	2g/
=85.	=85.	=85.	=85.
2A\	0r	4e/]	1f
.	.	4d/	.
2B\	.	2d/	.
[1c	.	[1e	2e/
.	.	.	[2ee\
=86	=86	=86	=86
2c\]	0r	1e]	2ee\]
2B\	.	.	2dd\
2A\	.	1e	2cc\
2G\	.	.	2b\
=87.	=87.	=87.	=87.
2F\	0r	1r	2a/
2E\	.	.	2g/
1D	.	1f	1dd
=88	=88	=88	=88
0A	0r	2e/	1.cc
.	.	1a	.
.	.	2g/	2b\
=89.	=89.	=89.	=89.
0D	0r	2f/	2a/
.	.	2e/	2g/
.	.	1d	1f
=90	=90	=90	=90
0Al	0r	0cl	0el
!!LO:LB:i:g=z
=91||	=91||	=91||	=91||
*>C	*>C	*>C	*>C
*clefF4	*clefGv2	*clefG2	*clefG2
*k[]	*k[]	*k[]	*k[]
*M2/1	*M2/1	*M2/1	*M2/1
*met(C2)	*met(C2)	*met(C2)	*met(C2)
!!section: Osanna
!!!OMD: Osanna
[0A	1e	0a	[0cc
.	2c\	.	.
.	2d\	.	.
=92.	=92.	=92.	=92.
0A]	2e\	1a	1cc]
.	1f	.	.
.	.	[1a	1cc
.	4e\	.	.
.	4d\	.	.
=93	=93	=93	=93
1A	2e\	2a/]	0cc
.	2A/	4g/	.
.	.	4f/	.
[1A	2c\	2e/	.
.	2d\	2f/	.
=94.	=94.	=94.	=94.
1A]	2e\	2e/	1r
.	1f	1a	.
1F	.	.	[1cc
.	4e\	4g/	.
.	4d\	4f/	.
=95	=95	=95	=95
2.c\	1e	1.g	2cc\]
.	.	.	2dd\
4B\	.	.	.
2c\	1r	.	2ee\
[2d\	.	2f/	[2ff\
=96.	=96.	=96.	=96.
2d\]	1r	1d	2ff\]
4c\	.	.	4ee\
4B\	.	.	4dd\
2A\	1c	2r	2ee\
[2c\	.	[2a/	2a/
=97	=97	=97	=97
2c\]	2e\	2a/]	2cc\
4B\	2f\	4g/	2dd\
4A\	.	4f/	.
2G\	2g\	2e/	2ee\
2F\	[2a\	[2cc\	[2ff\
=98.	=98.	=98.	=98.
0c	2a\]	2cc\]	2ff\]
.	4g\	4b\	4ee\
.	4f\	4a/	4dd\
.	2g\	2g/	[1ee
.	2c\	2a/	.
=99	=99	=99	=99
1c	2e\	2g/	1ee]
.	2f\	2c/	.
1c	2g\	[1cc	1ee
.	[2a\	.	.
=100.	=100.	=100.	=100.
0c	2a\]	1cc]	1.ee
.	4g\	.	.
.	4f\	.	.
.	1g	1cc	.
.	.	.	4ff\
.	.	.	4ee\
=101	=101	=101	=101
1r	0f	1a	0ff
[1F	.	[1cc	.
=102.	=102.	=102.	=102.
2F\]	[0f	2cc\]	2r
2G\	.	2b\	2dd\
2A\	.	2a/	2cc\
[2B-i\	.	2g/	[2dd\
=103	=103	=103	=103
2B-\]	1f]	2f/	2dd\]
4A\	.	2b-i\	4cc\
4G\	.	.	4b-i\
2A\	1f	2a/	2cc\
2D\	.	4f/	2dd\
.	.	4g/	.
=104.	=104.	=104.	=104.
2F\	0f	2a/	2a/
2G\	.	2b-i\	2dd\
2A\	.	4a/	2cc\
.	.	4g/	.
[2B-i\	.	4f/	[2dd\
.	.	4e/	.
=105	=105	=105	=105
2B-\]	0e	1d	2dd\]
4A\	.	.	4cc#i\
4G\	.	.	4b\
1A	.	1r	1cc#i
=106.	=106.	=106.	=106.
0D	1d	1r	[0dd
.	2r	[1f	.
.	[2d\	.	.
=107	=107	=107	=107
0r	2d\]	2f/]	0dd]
.	2e\	2g/	.
.	2f\	2a/	.
.	[2g\	[2b-\	.
=108.	=108.	=108.	=108.
0r	2g\]	2b-\]	0dd
.	4f\	4a/	.
.	4e\	4g/	.
.	1f	2a/	.
.	.	2d/	.
=109	=109	=109	=109
0D	2d\	2f/	[0dd
.	2e\	2g/	.
.	2f\	2a/	.
.	2g\	[2b-i\	.
=110.	=110.	=110.	=110.
0D	2d\	2b-\]	0dd]
.	1g	4a/	.
.	.	4g/	.
.	.	1a	.
.	2f\	.	.
=111	=111	=111	=111
1G	2.g\	[0g	1r
.	4f\	.	.
[1G	1d	.	[1b
=112.	=112.	=112.	=112.
2G\]	0r	0g]	2b\]
2A\	.	.	2cc\
2B\	.	.	2dd\
[2c\	.	.	[2ee\
=113	=113	=113	=113
2c\]	0r	[0g	2ee\]
4B\	.	.	4dd\
4A\	.	.	4cc\
2B\	.	.	2dd\
2c\	.	.	2g/
=114.	=114.	=114.	=114.
2.G\	0r	1g]	2b\
.	.	.	2cc\
4A\	.	.	.
2B\	.	1g	2dd\
[2c\	.	.	[2ee\
=115	=115	=115	=115
2c\]	0r	0g	2ee\]
4B\	.	.	4dd\
4A\	.	.	4cc\
2B\	.	.	2dd\
2c\	.	.	2ee\
=116.	=116.	=116.	=116.
0F	1c	0f	0a
.	2d\	.	.
.	[2c\	.	.
=117	=117	=117	=117
1A	2c\]	1f	1cc
.	1f	.	.
1G	.	1g	1b
.	2e\	.	.
=118.	=118.	=118.	=118.
[0F	1.f	[0a	1a
.	.	.	[1ff
.	4e\	.	.
.	4d\	.	.
=119	=119	=119	=119
0F]	2c\	0a]	1ff]
.	2d\	.	.
.	1A	.	1ff
=120.	=120.	=120.	=120.
2r	1a	1cc	1ee
2A\	.	.	.
2B\	2f\	1b	1dd
2G\	2g\	.	.
=121	=121	=121	=121
2A\	2e\	1a	2.cc\
2F\	2f\	.	.
.	.	.	4a/
2.G\	4e\	1g	1b
.	4d\	.	.
.	[2e\	.	.
4F\	.	.	.
=122.	=122.	=122.	=122.
2D\	2e\]	2f/	1a
2F\	1d	2d/	.
1E	.	1e	2r
.	2c#i\	.	2ee\
=123	=123	=123	=123
1D	1d	2r	2ff\
.	.	2a/	2dd\
1r	1r	2g/	2ee\
.	.	2a/	2cc\
=124.	=124.	=124.	=124.
0r	0r	2f/	2.dd\
.	.	4d/	.
.	.	4e/	4cc\
.	.	4f/	2a/
.	.	4g/	.
.	.	[2a/	2cc\
=125	=125	=125	=125
1r	0r	2a/]	1b
.	.	2g/	.
1A	.	2a/	2a/
.	.	2e/	[2cc\
=126.	=126.	=126.	=126.
1A	2r	2r	4cc\]
.	.	.	4dd\
.	2a\	2c/	4ee\
.	.	.	4ff\
2.G\	2b\	2d/	2gg\
.	2g\	2e/	2ee\
4F\	.	.	.
=127	=127	=127	=127
2D\	2a\	2d/	2ff\
2d\	2f\	2a/	1dd
2G\	2.g\	2b\	.
[2c\	.	2g/	[2ee\
.	4f\	.	.
=128.	=128.	=128.	=128.
4c\]	2d\	1a	4ee\]
4B\	.	.	4dd\
2d\	2f\	.	1dd
1A	1e	1a	.
.	.	.	2cc#i\
=129	=129	=129	=129
0Dl	0dl	0fl	0ddl
!!LO:LB:i:g=z
!!LO:TX:rj:i:Y=40:t=fine
=130||	=130||	=130||	=130||
*>D	*>D	*>D	*>D
*clefF4	*clefGv2	*clefG2	*clefG2
*k[]	*k[]	*k[]	*k[]
*M2/1	*M2/1	*M2/1	*M2/1
*met(C2)	*met(C2)	*met(C2)	*met(C2)
!!section: Benedictus qui venit
!!!OMD: Benedictus qui venit
1.d	0r	0r	0r
4c\	.	.	.
4B\	.	.	.
=131	=131	=131	=131
2c\	1r	0r	0r
2d\	.	.	.
1B-i	[1f	.	.
=132	=132	=132	=132
0A	2f\]	0r	0r
.	4e\	.	.
.	4d\	.	.
.	2e\	.	.
.	2f\	.	.
=133	=133	=133	=133
1r	1d	0r	0r
2.A\	1c	.	.
4B\	.	.	.
=134	=134	=134	=134
4c\	1r	0r	0r
4A\	.	.	.
1c	.	.	.
.	1e	.	.
4B\	.	.	.
4A\	.	.	.
=135	=135	=135	=135
2G\	2.e\	0r	0r
2A\	.	.	.
.	4f\	.	.
1E	4g\	.	.
.	4e\	.	.
.	[2g\	.	.
=136	=136	=136	=136
4E\	2g\]	0r	0r
4F\	.	.	.
4G\	4f\	.	.
4A\	4e\	.	.
2B\	2d\	.	.
2c\	2e\	.	.
=137	=137	=137	=137
2G\	2B\	0r	0r
1c	1e	.	.
[2B\	[2d\	.	.
=138	=138	=138	=138
4B\]	4d\]	0r	0r
4A\	4c\	.	.
1A	4B\	.	.
.	4A/	.	.
.	1B	.	.
2G#i\	.	.	.
=139	=139	=139	=139
1A	2A/	0r	0r
.	2.c\	.	.
2A\	.	.	.
.	4d\	.	.
[2c\	[2e\	.	.
=140	=140	=140	=140
2c\]	4e\]	0r	0r
.	4f\	.	.
4B\	2.g\	.	.
4A\	.	.	.
2G\	.	.	.
.	4f\	.	.
2A\	4e\	.	.
.	4d\	.	.
=141	=141	=141	=141
2E\	2c\	0r	0r
1A	1f	.	.
[2G\	[2e\	.	.
=142	=142	=142	=142
4G\]	4e\]	0r	0r
4F\	4d\	.	.
4E\	1d	.	.
4D\	.	.	.
1E	.	.	.
.	2c#i\	.	.
=143	=143	=143	=143
0Dl	0dl	0r	0r
!!LO:LB:i:g=z
=144||	=144||	=144||	=144||
*>E	*>E	*>E	*>E
*clefF4	*clefGv2	*clefG2	*clefG2
*k[]	*k[]	*k[]	*k[]
*M2/1	*M2/1	*M2/1	*M2/1
*met(C2)	*met(C2)	*met(C2)	*met(C2)
!!section: In nomine Domini
!!!OMD: In nomine Domini
0r	0r	[0a	1r
.	.	.	[1cc
=145	=145	=145	=145
0r	0r	0a]	2cc\]
.	.	.	4b\
.	.	.	4a/
.	.	.	2.cc\
.	.	.	4dd\
=146	=146	=146	=146
0r	0r	1a	2ee\
.	.	.	1ff
.	.	1a	.
.	.	.	[2ee\
=147	=147	=147	=147
0r	0r	0g	2ee\]
.	.	.	4dd\
.	.	.	4cc\
.	.	.	1b
=148	=148	=148	=148
0r	0r	1r	0a
.	.	[1f	.
=149	=149	=149	=149
0r	0r	2f/]	2r
.	.	4e/	1dd
.	.	4d/	.
.	.	2.f/	.
.	.	.	4cc\
.	.	4g/	4b\
=150	=150	=150	=150
0r	0r	2a/	2cc\
.	.	1b-i	2dd\
.	.	.	2ee\
.	.	[2a/	2ff\
=151	=151	=151	=151
0r	0r	2a/]	4ee\
.	.	.	4dd\
.	.	4g/	1dd
.	.	4f/	.
.	.	1e	.
.	.	.	2cc#i\
=152	=152	=152	=152
0r	0r	2.d/	1dd
.	.	4e/	.
.	.	4f/	2r
.	.	4d/	.
.	.	[2g/	2dd\
=153	=153	=153	=153
0r	0r	2g/]	1dd
.	.	2f/	.
.	.	2.g/	1dd
.	.	4f/	.
=154	=154	=154	=154
0r	0r	4g/	0ee
.	.	4f/	.
.	.	4e/	.
.	.	4d/	.
.	.	2c/	.
.	.	2g/	.
=155	=155	=155	=155
0r	0r	1.a	1.ff
.	.	[2g/	[2ee\
=156	=156	=156	=156
0r	0r	2g/]	2ee\]
.	.	4f/	4dd\
.	.	4e/	4cc\
.	.	1f	1dd
=157	=157	=157	=157
0r	0r	1e	2.ee\
.	.	.	4dd\
.	.	2r	2cc\
.	.	2e/	[2b\
=158	=158	=158	=158
0r	0r	1e	2b\]
.	.	.	4a/
.	.	.	4g/
.	.	1f	[1a
=159	=159	=159	=159
0r	0r	2f/	2a/]
.	.	1e	1g
.	.	4d/	4f/
.	.	4c/	4e/
=160	=160	=160	=160
0r	0r	1d	1f
.	.	1e	2r
.	.	.	2cc\
=161	=161	=161	=161
0r	0r	2r	2b\
.	.	2e/	1ee
.	.	1f	.
.	.	.	2dd\
=162	=162	=162	=162
0r	0r	2e/	2cc\
.	.	1a	4b\
.	.	.	4a/
.	.	.	2.b\
.	.	2g/	.
.	.	.	4cc\
=163	=163	=163	=163
0r	0r	2f/	2dd\
.	.	4e/	4cc\
.	.	4d/	4b\
.	.	2c/	2a/
.	.	2d/	2dd\
=164	=164	=164	=164
0r	0r	1e	4cc\
.	.	.	4dd\
.	.	.	4ee\
.	.	.	4cc\
.	.	2r	2.ff\
.	.	2a/	.
.	.	.	4ee\
=165	=165	=165	=165
0r	0r	2g/	4ee\
.	.	.	4dd\
.	.	1b-i	1gg
.	.	2a/	2ff\
=166	=166	=166	=166
0r	0r	2g/	2ee\
.	.	4f/	4dd\
.	.	4e/	4cc\
.	.	1f	1dd
=167	=167	=167	=167
0r	0r	2r	[0ccl
.	.	2f/	.
.	.	2e/	.
.	.	[2a/	.
=168	=168	=168	=168
0r	0r	2a/]	0cc_
.	.	2g/	.
.	.	2f/	.
.	.	4e/	.
.	.	4d/	.
=169	=169	=169	=169
*	*	*^	*
0r	0r	0Al\	0el/	0cc]
*	*	*v	*v	*
!!LO:TX:i:Y=40:rj:t=Osanna ut supra
=||	=||	=||	=||
*-	*-	*-	*-
!!!RDF**kern: l=long note in original notation
!!!RDF**kern: i=editorial accidental
!!!ENC:	Chris Gage 03-28-2013
!!!END:	2013/07/27/
!!!EED:	Jesse Rodin
!!!EEV:	2013/08/05/
!!!ONB:	Translated from MusicXML and edited on 2013/08/05/ by Craig Sapp
!!muse2ps: T^@{OPR}^u^@{ONM}{. }@{OTL}^C^@{COM}^i2I150v85,85,85,150c82
